X:51
T:Wicklow Hornpipe, The
T:Road To Boyle, The
T:Homebrew Hornpipe, The
R:hornpipe
H:Bar 4 also played |DG~G2 DGGB|
D:John Williams
Z:id:hn-hornpipe-51
M:C|
K:D
FG|ABAF DEFG|AGFD =c2 (3AB^c|dcde fdAF|DGGF G2FG|
ABAF DEFG|AGFD =c2 (3AB^c|dcde fdAG|F2D2 D2:|
|:de|~f3d ecAF|Gggf g2 (3efg|agab agec|dcAF G2FG|
ABAF DEFG|AGFD =c2 (3AB^c|dcde fdAG|F2D2 D2:|
P:Version 2:
|:FG|A2AF DEFG|AFed =c2 (3AB^c|d2de fdAG|EGGA G2FG|
ABAF DEFG|AGAB =c2 (3AB^c|d2de fdAG|F2D2 D2:|
|:de|f2fd edcA|defd g2 (3efg|a2ab agef|dcAB G2FG|
A2AF DEFG|AFed =c2 (3AB^c|d2de fdAG|F2D2 D2:|

